X: 9686
T: Dear Old Newport Town
R: waltz
M: 3/4
K: Dmajor
FG|"D" A4 A2|"D" d4 F2|"G" G4 A2|"A" A4 G2|
"D" F4 D2|"A" D4 C2|"D" D6-|"D" D2 z2 FG|
"D" A4 A2|"D" d4 e2|"D" f2 e2 d2|"A" e4 dd|
"A" c4 d2|"G" B4 G2|"A" A6-|"A" A2 z2 FG|
"D" A4 A2|"D" d4 e2|"D" f4 ed|"A" e4 d2|
"A" c4 d2|"G" B4 G2|"A" A6-|"A" A2 z2 FG|
"D" A4 A2|"D" d4 A2|"G" G2 F2 G2|"A" A4 G2|
"D" F2 E2 F2|"A" D4 C2|"D" D6-|"D" D2 z2||

